img/logo.svg

<?xml version="1.0" encoding="UTF-8"?>
<svg xmlns="http://www.w3.org/2000/svg" xmlns:xlink="http://www.w3.org/1999/xlink" width="2679px" height="676px" viewBox="0 0 2679 676" version="1.1">
    <g id="Logo-Light">
        <g id="hexagon1-+-{-+-}" transform="translate(110.000000, 0.000000)">
            <g id="hexagon1" fill="#3498DB">
                <path d="M485.913634,197.335437 L385.614618,23.1618007 C377.492341,9.06473435 362.509826,0.39323073 346.289719,0.39323073 L145.700853,0.39323073 C129.481764,0.39323073 114.503324,9.06473435 106.374936,23.1618007 L6.08203099,197.335437 C-2.02700413,211.431482 -2.02700413,228.778574 6.08203099,242.876662 L106.374936,417.065619 C114.503324,431.162685 129.481764,439.83521 145.700853,439.83521 L346.2887,439.83521 C362.509826,439.83521 377.492341,431.162685 385.613599,417.065619 L485.913634,242.876662 C494.021651,228.778574 494.021651,211.431482 485.913634,197.335437 L485.913634,197.335437 L485.913634,197.335437 Z" id="Shape" />
            </g>
            <g id="{" transform="translate(107.000000, 82.000000)" fill="#FFFFFF">
                <path d="M105.784244,265.814916 L95.2047307,265.814916 C76.8096294,265.814916 63.1326478,261.502139 54.1733756,252.876457 C45.2141035,244.250775 40.7345346,231.16948 40.7345346,213.632182 L40.7345346,164.451742 C40.7345346,159.781483 40.2103297,155.611672 39.1619042,151.942183 C38.1134788,148.272694 36.2787617,145.175119 33.6576981,142.649367 C31.0366344,140.123615 27.5578203,138.193588 23.2211513,136.859228 C18.8844823,135.524868 13.4279862,134.857699 6.85149918,134.857699 L0.703944235,134.857699 L0.703944235,114.98537 L6.85149918,114.98537 C13.8092318,114.98537 19.4801754,114.41351 23.8645001,113.269773 C28.2488247,112.126036 31.6799839,110.386629 34.1580804,108.0515 C36.636177,105.71637 38.3517566,102.737934 39.3048706,99.1161001 C40.2579847,95.4942667 40.7345346,91.2053177 40.7345346,86.2491246 L40.7345346,52.3660893 C40.7345346,44.3599312 41.6876343,37.1402005 43.5938624,30.7066806 C45.5000906,24.2731607 48.6214923,18.792837 52.9581613,14.2655452 C57.2948302,9.73825346 62.9181188,6.25943932 69.8281958,3.82899847 C76.7382727,1.39855762 85.1970331,0.183355426 95.2047307,0.183355426 L105.784244,0.183355426 L105.784244,20.1986506 L97.3492266,20.1986506 C75.2369804,20.1986506 64.1810232,30.9210229 64.1810232,52.3660893 L64.1810232,85.6772591 C64.1810232,108.933242 54.1258207,122.038364 34.015114,124.993017 C54.3164435,126.994557 64.466956,140.052024 64.466956,164.165809 L64.466956,213.060316 C64.466956,234.886628 75.4276032,245.79962 97.3492266,245.79962 L105.784244,245.79962 L105.784244,265.814916 Z" />
            </g>
            <g id="}" transform="translate(279.000000, 82.000000)" fill="#FFFFFF">
                <path d="M0.239304236,0.183355426 L10.8188174,0.183355426 C29.2139187,0.183355426 42.8909003,4.49613185 51.8501725,13.1218141 C60.8094446,21.7474963 65.2890135,34.8287906 65.2890135,52.3660893 L65.2890135,85.3913263 C65.2890135,90.0615852 65.8132184,94.2313966 66.8616439,97.9008858 C67.9100693,101.570375 69.7447864,104.667949 72.36585,107.193701 C74.9869137,109.719454 78.4895553,111.649481 82.87388,112.98384 C87.2582047,114.3182 92.7385283,114.98537 99.3150153,114.98537 L105.46257,114.98537 L105.46257,134.857699 L99.3150153,134.857699 C92.3572827,134.857699 86.6625116,135.429558 82.2305312,136.573295 C77.7985508,137.717032 74.3435642,139.456439 71.8654677,141.791569 C69.3873711,144.126698 67.6717915,147.105135 66.7186775,150.726968 C65.7655634,154.348802 65.2890135,158.637751 65.2890135,163.593944 L65.2890135,213.632182 C65.2890135,221.63834 64.3359138,228.858071 62.4296856,235.29159 C60.5234575,241.72511 57.4258833,247.205434 53.13687,251.732726 C48.8478568,256.260018 43.2245682,259.738832 36.2668355,262.169273 C29.3091029,264.599713 20.826515,265.814916 10.8188174,265.814916 L0.239304236,265.814916 L0.239304236,245.79962 L8.81728788,245.79962 C30.8342226,245.79962 41.8425249,235.077248 41.8425249,213.632182 L41.8425249,164.165809 C41.8425249,140.909826 51.8977274,127.85236 72.008434,124.993017 C51.7071046,122.800855 41.5565921,109.695733 41.5565921,85.6772591 L41.5565921,52.9379548 C41.5565921,31.1116429 30.6435998,20.1986506 8.81728788,20.1986506 L0.239304236,20.1986506 L0.239304236,0.183355426 Z" />
            </g>
        </g>
    </g>
</svg>

<?xml version="1.0" encoding="UTF-8" standalone="no"?>
<svg
   xmlns:dc="http://purl.org/dc/elements/1.1/"
   xmlns:cc="http://creativecommons.org/ns#"
   xmlns:rdf="http://www.w3.org/1999/02/22-rdf-syntax-ns#"
   xmlns:svg="http://www.w3.org/2000/svg"
   xmlns="http://www.w3.org/2000/svg"
   width="491.99438"
   height="439.44199"
   viewBox="0 0 491.99438 439.44199"
   version="1.1">
  <g
     id="Logo-Light"
     transform="translate(-110.00025,-0.39323073)">
    <g
       id="hexagon1-+-{-+-}"
       transform="translate(110)">
      <g
         id="hexagon1"
         style="fill:#3498db">
        <path
           d="M 485.91363,197.33544 385.61462,23.161801 C 377.49234,9.0647344 362.50983,0.39323073 346.28972,0.39323073 H 145.70085 c -16.21909,0 -31.19753,8.67150367 -39.32591,22.76857027 L 6.082031,197.33544 c -8.1090351,14.09604 -8.1090351,31.44313 0,45.54122 L 106.37494,417.06562 c 8.12838,14.09706 23.10682,22.76959 39.32591,22.76959 H 346.2887 c 16.22113,0 31.20364,-8.67253 39.3249,-22.76959 L 485.91363,242.87666 c 8.10802,-14.09809 8.10802,-31.44518 0,-45.54122 z" id="Shape"/>
      </g>
      <g
         id="{"
         transform="translate(107,82)"
         style="fill:#ffffff">
        <path
           d="M 105.78424,265.81492 H 95.204731 c -18.395102,0 -32.072083,-4.31278 -41.031355,-12.93846 -8.959273,-8.62569 -13.438841,-21.70698 -13.438841,-39.24428 v -49.18044 c 0,-4.67026 -0.524205,-8.84007 -1.572631,-12.50956 -1.048425,-3.66949 -2.883142,-6.76706 -5.504206,-9.29281 -2.621064,-2.52576 -6.099878,-4.45578 -10.436547,-5.79014 -4.336669,-1.33436 -9.793165,-2.00153 -16.3696518,-2.00153 H 0.70394424 V 114.98537 H 6.8514992 c 6.9577328,0 12.6286758,-0.57186 17.0130008,-1.7156 4.384325,-1.14373 7.815484,-2.88314 10.29358,-5.21827 2.478097,-2.33513 4.193677,-5.31357 5.146791,-8.9354 0.953114,-3.621833 1.429664,-7.910782 1.429664,-12.866975 V 52.366089 c 0,-8.006158 0.953099,-15.225889 2.859327,-21.659408 1.906229,-6.43352 5.02763,-11.913844 9.364299,-16.441136 C 57.29483,9.7382535 62.918119,6.2594393 69.828196,3.8289985 76.738273,1.3985576 85.197033,0.18335543 95.204731,0.18335543 H 105.78424 V 20.198651 h -8.435013 c -22.112247,0 -33.168204,10.722372 -33.168204,32.167438 v 33.31117 c 0,23.255981 -10.055202,36.361101 -30.165909,39.315761 20.301329,2.00154 30.451842,15.059 30.451842,39.17279 v 48.89451 c 0,21.82631 10.960647,32.7393 32.882271,32.7393 h 8.435013 z"/>
      </g>
      <g
         id="}"
         transform="translate(279,82)"
         style="fill:#ffffff">
        <path
           d="M 0.23930424,0.18335543 H 10.818817 c 18.395102,0 32.072083,4.31277637 41.031355,12.93845857 8.959273,8.625682 13.438841,21.706977 13.438841,39.244275 v 33.025237 c 0,4.670259 0.524205,8.840071 1.572631,12.50956 1.048425,3.669494 2.883142,6.767064 5.504206,9.292814 2.621064,2.52575 6.123705,4.45578 10.50803,5.79014 4.384325,1.33436 9.864648,2.00153 16.441135,2.00153 h 6.147555 v 19.87233 h -6.147555 c -6.957732,0 -12.652503,0.57186 -17.084484,1.71559 -4.43198,1.14374 -7.886967,2.88315 -10.365063,5.21828 -2.478097,2.33513 -4.193677,5.31356 -5.146791,8.9354 -0.953114,3.62183 -1.429664,7.91078 -1.429664,12.86697 v 50.03824 c 0,8.00616 -0.953099,15.22589 -2.859327,21.65941 -1.906229,6.43352 -5.003803,11.91384 -9.292816,16.44114 -4.289013,4.52729 -9.912302,8.0061 -16.870035,10.43654 -6.957732,2.43044 -15.44032,3.64565 -25.448018,3.64565 H 0.23930424 v -20.0153 H 8.8172879 c 22.0169351,0 33.0252371,-10.72237 33.0252371,-32.16744 v -49.46637 c 0,-23.25598 10.055202,-36.31345 30.165909,-39.17279 C 51.707105,122.80086 41.556592,109.69573 41.556592,85.677259 V 52.937955 C 41.556592,31.111643 30.6436,20.198651 8.8172879,20.198651 H 0.23930424 Z"/>
      </g>
    </g>
  </g>
</svg>
